X: 1
T: THE WEBLEY TWIZZLE
S: Jour 1956
O: Bampton
P: A.(A2B2)4
Q:
B: Morris Ring
Z: 2005 John Chambers <jc@trillian.mit.edu>
M: 6/8
L: 1/8
K: G
P: A
D |: GFG AGA | BdB AGA | BAG EAG | FEF G2 :|
P: B
B |  d2e dBG | d2e dBG | EAG FED | BAG EAG | FEF G2 ||
P: Alt. bars B1 and 2
| dde dBG | dde dBG | y6 "Alt rhythm (Wells 1936)"| G>FG A>GA | y6 y6 y6
